X: 1
T: the Belfast Almanac
R: jig
Z: John Chambers <jc:trillian.mit.edu>
M: 6/8
L: 1/8
K: G
zD \
| "G"G2G "D7"FED | "C"E2F "D7"G2A | "G"B2G "D7"c2A | "G"B2G "D7"c2A \
| "G"Bcd "Em"E2E | "Am"ABG "D7"FED | "C"EFG "D7"AFD | "G"G3 z :|
|: dc \
| "G"Bcd "D7"def | "G"g2g g3 | B2B "G7"Bcd | "C"e2e e2e \
| "G"dcB "C"cde | "G"dcd D2D | "C"EFG "D7"AFD | "G"G3 z :|
